X: 6
T: F\aedrelandspolka
R: polka
S: handwritten MS of unknown origin, labelled "II-4" and "O.B.G.-E.M.A. Skive 1980"
M: 2/4
L: 1/16
P: AABBACC
K: D
"A"|: "D"A3B A3B | A2d2 f4 | "A7"g2g2 gfe2 |1,3 "D"f2f2 fed2 :|2,4 "D"d2d2 d4 :|
K: A
"B"|: "A"e3d c2a2 | "E7"a2g2 gfe2 |1,3 g2f2 fed2 | "A"f2e2 edc2 :|2,4 g2f2 efg2 | "A"a2a2 "d.C."a4 :|
K: G
"C"|: "G"d3d "D7"c3c | "G"B2d2 dcB2 | "D7"c2a2 agf2 |1,3 "G"g2b2 bag2 |3,4 "G"g2g2 g4 :|
